src/assets/outline/Blur.svg

<svg width="24" height="24" viewBox="0 0 24 24"  xmlns="http://www.w3.org/2000/svg">
<path d="M12 22.75C7.12 22.75 3.15003 18.78 3.15003 13.9C3.12003 8.17 8.57999 3.4 10.93 1.61C11.56 1.13 12.44 1.13 13.07 1.61C15.42 3.43 20.88 8.26 20.85 13.91C20.85 18.78 16.88 22.75 12 22.75ZM12 2.75C11.95 2.75 11.89 2.77 11.84 2.81C10.15 4.1 4.62997 8.71 4.65997 13.9C4.65997 17.96 7.96001 21.25 12.01 21.25C16.06 21.25 19.36 17.96 19.36 13.91C19.39 8.79 13.86 4.12 12.16 2.81C12.1 2.77 12.05 2.75 12 2.75Z" />
<path d="M12 22.75C11.59 22.75 11.25 22.41 11.25 22V2C11.25 1.59 11.59 1.25 12 1.25C12.41 1.25 12.75 1.59 12.75 2V22C12.75 22.41 12.41 22.75 12 22.75Z" />
<path d="M11.9999 19.7102C11.7199 19.7102 11.4499 19.5502 11.3199 19.2902C11.1399 18.9202 11.2899 18.4702 11.6699 18.2902L19.3699 14.5502C19.7399 14.3702 20.1899 14.5302 20.3699 14.9002C20.5499 15.2702 20.4 15.7202 20.02 15.9002L12.3199 19.6402C12.2199 19.6802 12.1099 19.7102 11.9999 19.7102Z" />
<path d="M11.9999 14.7101C11.7199 14.7101 11.4499 14.5501 11.3199 14.2901C11.1399 13.9201 11.2899 13.4701 11.6699 13.2901L19.0399 9.71008C19.4099 9.53008 19.8599 9.68008 20.0399 10.0601C20.2199 10.4401 20.0699 10.8801 19.6899 11.0601L12.3199 14.6401C12.2199 14.6801 12.1099 14.7101 11.9999 14.7101Z" />
<path d="M11.9999 9.70997C11.7199 9.70997 11.4499 9.54997 11.3199 9.28997C11.1399 8.91997 11.2899 8.46997 11.6699 8.28997L16.7 5.84997C17.07 5.66997 17.52 5.82996 17.7 6.19996C17.88 6.56996 17.7299 7.01996 17.3499 7.19996L12.3199 9.63997C12.2199 9.67997 12.1099 9.70997 11.9999 9.70997Z" />
</svg>

<?xml version="1.0" encoding="UTF-8"?>
<svg width="24" height="24" viewBox="0 0 24 24" xmlns="http://www.w3.org/2000/svg">
 <path d="m12 22.75c-4.88 0-8.85-3.97-8.85-8.85-0.03-5.73 5.43-10.5 7.78-12.29 0.63-0.48 1.51-0.48 2.14 0 2.35 1.82 7.81 6.65 7.78 12.3 0 4.87-3.97 8.84-8.85 8.84zm0-20c-0.05 0-0.11 0.02-0.16 0.06-1.69 1.29-7.21 5.9-7.18 11.09 0 4.06 3.3 7.35 7.35 7.35 4.05 0 7.35-3.29 7.35-7.34 0.03-5.12-5.5-9.79-7.2-11.1-0.06-0.04-0.11-0.06-0.16-0.06z"/>
 <path d="m12 22.75c-0.41 0-0.75-0.34-0.75-0.75v-20c0-0.41 0.34-0.75 0.75-0.75s0.75 0.34 0.75 0.75v20c0 0.41-0.34 0.75-0.75 0.75z"/>
 <path d="m12 19.71c-0.28 0-0.55-0.16-0.68-0.42-0.18-0.37-0.03-0.82 0.35-1l7.7-3.74c0.37-0.18 0.82-0.02 1 0.35s0.0301 0.82-0.3499 1l-7.7001 3.74c-0.1 0.04-0.21 0.07-0.32 0.07z"/>
 <path d="m12 14.71c-0.28 0-0.55-0.16-0.68-0.42-0.18-0.37-0.03-0.82 0.35-1l7.37-3.58c0.37-0.18 0.82-0.03 1 0.35002 0.18 0.38 0.03 0.82-0.35 1l-7.37 3.58c-0.1 0.04-0.21 0.07-0.32 0.07z"/>
 <path d="m12 9.71c-0.28 0-0.55-0.16-0.68-0.42-0.18-0.37-0.03-0.82 0.35-1l5.0301-2.44c0.37-0.18 0.82-0.02001 1 0.34999s0.0299 0.82-0.3501 1l-5.03 2.44c-0.1 0.04-0.21 0.07-0.32 0.07z"/>
</svg>
